!!!COM: Ce/cile Chaminade
!!!CNT: Francais
!!!TXO: Francais
!!!OTL: "Rosemonde"
!!!ENC: Amanda Harris
!!!YOR: Album of Songs, Volume 1
!!!YOR: Da Capo Press
!!!ODT: 1878/
!!NB: Vocal melody and text encoded
**kern	**silbe
*clefG2	*
*k[]	*
*M4/4	*
*MM[andante]	*
=5	=5
{4e	{Pour-
4e	-quoi
4e	tar-
4e	-de-
=6	=6
4e	-t'il
8g	a\
8a	ve-
2g	-nir
=7	=7
4g	Quand
4ee	|
8dd	je
8cc	suis
8b	a\
8a	l'at-
=8	=8
2g	-ten-
4f}	-dre,}
4r	.
=9	=9
{4f	{Craint-
8f	-il,
8dd	he/-
4dd	-las!
8f	|
8r	.
=10	=10
4e	Mon
8e	re-
8cc	-gard
4cc	ten-
4c	-dre
=11	=11
8d	Et
8e	|
8g	mon
8f	pre-
4e	-mier
8d	|
8c	sou-
=12	=12
4c}	-pir!}
4r	.
2r	.
=13	=13
{4e	{Dieu
4f#	qui
4g	dai-
4a	-gnez
=14	=14
4.b	nous
8a	be/-
8g	-nir,
8r	.
4d	Pi-
=15	=15
8e	-tie/,
8r	.
4f#	pi-
4g	-tie/
4a	pour
=16	=16
4.b	mon
8a	mar-
2g}	-tyr!}
=17	=17
{4g	{O
8a	Dieu
8b	|
4dd	qui
8b	dai-
8a	|
=18	=18
4g	-gnez
8a	nous
8b	be/-
4dd	-nir
8b	Pi-
8g	|
=19	=19
4e	-tie/
8f#	pour
8g	|
4.a	mon
8b	mar-
=20	=20
[2g	tyr!
4g]}	|}
4r	.
=21	=21
{4fn	{Ou-
4e	-bli-
4d	-ant
4c	les
=22	=22
4f	tra-
8e	-vaux
8e	du
4d	jour,
4c	|
=23	=23
4a	Au
4g	vil-
4e	-lage
8d	on
8c	som-
=24	=24
4.d	-meil-
8e	|
4d}	-le,}
4r	.
=25	=25
{4b-	{Quand
4a	moi
4g	seu le-
4f	-i-
=26	=26
4b-	-ci
4a	je
4g	veil-
4f	-le
=27	=27
4cc	Con-
4a	|
4f	-dui-
8e	-te
8d	|
=28	=28
4.e	par
8f	l'a-
4.e}	-mour!}
{8e	{Faut-
=29	=29
4e	-il
4f#	at-
4g	-ten-
4a	-dre
=30	=30
4.b	son
8a	re-
4g	tour
8d	|
8r	.
=31	=31
4e	Dans
4f#	ce
4g	tris-
4a	-te
=32	=32
4.b	se/-
8a	|
2g}	-jour!}
=33	=33
{4g	{Faut-
8a	-il
8b	at-
4dd	-ten-
8b	-dre
8a	|
=34	=34
4g	son
8a	re-
8b	|
4dd	-tour
8b	Dans
8g	|
=35	=35
4e	ce
8f#	tris-
8g	|
4.a	-te
8a	se/-
=36	=36
4g	-jour!
[4g	Ah!
8g]	|
8a	|
8fn	|
8g	|
=37	=37
8e}	|}
8r	.
{4e	{des
4e	lar-
4e	-mes
=38	=38
4e	voi-
8g	-lent
8a	mes
2g	yeux
=39	=39
4g	m'est-
4ee	|
8dd	-il
8cc	|
8b	in-
8a	-fi-
=40	=40
2g	-de\-
4f}	-le!}
4r	.
=41	=41
{4f	{Peut
8f	e^-
8dd	-tre
4dd	he/-
4f	-las
=42	=42
4e	une
8e	au-
8cc	-tre
4cc	bel-
4c	le
=43	=43
8d	E-
8e	|
8g	-cou-
8f	-te
4e	ses
8d	|
8c	a-
=44	=44
4c}	-veux?}
4r	.
{4c	{Ah!
8c	si
8c	la-
=45	=45
2f	-haut
4e	l'on
8e	ai-
8e	-me
=46	=46
2a	mieux,
4g	Je
8a	|
8b	|
=47	=47
4cc	veux
4g	mon-
8g	-ter
8f	|
4e	aux
=48	=48
4d}	cieux;}
4r	.
{4g	{Ah!
8g	si
8g	la-
=49	=49
2cc	-haut
4cc	l'on
8cc	ai-
8cc	-me
=50	=50
2cc	mieux,
4a	Je
4b	|
=51	=51
8cc	veux
8g	|
8a	mon-
8f	|
4e	-ter
4d	aux
=52	=52
[2c	cieux,
4c]}	|}
4r	.
=53	=53
{2c	{mon-
4.c	-ter
8c	aux
=54	=54
1cc}	cieux!}
*-	*-
